X: 100220
M: C|
L: 1/8
K: D
uf |\
d<d (f>d) (e>d)f>d | B<B (e>B) (c>A)e<A | d<d(f>d) (e>d)f<d | F<F (d>F) ~E2Df |
d<d (f>d) (e>d)f>d | B<B (e>B) (c>A)e<A | d<d(f>d) (e>d)f>d | (.e>.c) (d>F) ~E2(D :|
uB) |\
P: Reel
uB |\
ug |\
(fd)fa (bg)gb | (ag)ga (ge)eg | (fd)fa (bg)gb | (af)df {ef}e2dg |
(fd)fa (bf)fb | (af)df (bg)eg | (fg)af (ga)bg | (af)df {ef}e2"^D.C.""_Fine."d |]


